src/komponenter/tiltakinfo/tiltakinfo.svg

<svg xmlns="http://www.w3.org/2000/svg" xmlns:xlink="http://www.w3.org/1999/xlink" width="100" height="100" viewBox="0 0 100 100">
  <defs>
    <circle id="inngang_veientilarbeid-a" cx="50" cy="50" r="50"/>
    <circle id="inngang_veientilarbeid-c" cx="50" cy="50" r="50"/>
  </defs>
  <g fill="none" fill-rule="evenodd">
    <mask id="inngang_veientilarbeid-b" fill="#fff">
      <use xlink:href="#inngang_veientilarbeid-a"/>
    </mask>
    <g fill="#99BDCD" mask="url(#inngang_veientilarbeid-b)">
      <polygon points="0 100 100 100 100 0 0 0"/>
    </g>
    <mask id="inngang_veientilarbeid-d" fill="#fff">
      <use xlink:href="#inngang_veientilarbeid-c"/>
    </mask>
    <path fill="#CCDEE6" d="M50.9721286,17.1874976 C56.2317427,24.8533131 54.4649473,35.4618023 47.0245431,40.8807594 C39.5830935,46.2997165 29.2875897,44.4783179 24.0279757,36.8125024 C18.7673161,29.1466869 20.5362024,18.5381977 27.9766066,13.1192406 C35.4170108,7.70028346 45.7125146,9.52168209 50.9721286,17.1874976 Z" mask="url(#inngang_veientilarbeid-d)"/>
    <path fill="#C52C35" d="M67.436755,67.3007826 C65.7673507,68.5161647 63.4609916,68.1063889 62.2817927,66.3879051 L49.6790391,48.0123574 C48.4998402,46.2938736 48.8953349,43.9145996 50.5636985,42.6992174 C52.232062,41.4838353 54.5384211,41.8936111 55.71762,43.6120949 L68.3214144,61.9876426 C69.4995725,63.7061264 69.1051185,66.0854004 67.436755,67.3007826" mask="url(#inngang_veientilarbeid-d)"/>
    <path fill="#2F3238" d="M29.0558389,13.3473069 C22.0790116,18.2795903 20.4158937,27.9692533 25.3469482,34.9452595 C30.2780026,41.9212657 39.9673339,43.5844406 46.9441611,38.6532172 C53.9209884,33.7209339 55.5841063,24.0312708 50.6530518,17.0552646 C45.7219974,10.0792584 36.0326661,8.41502354 29.0558389,13.3473069 M48.3931619,40.7033002 C40.2863896,46.4337803 29.0282792,44.5024198 23.2958754,36.3943099 C17.5655916,28.28726 19.4990059,17.0287641 27.6068381,11.2972239 C35.7136104,5.56568383 46.9717208,7.49810433 52.7041246,15.6051542 C58.4344084,23.7132641 56.5009941,34.9717601 48.3931619,40.7033002" mask="url(#inngang_veientilarbeid-d)"/>
    <path fill="#2F3238" d="M52.6235045,46.2948643 C51.4322008,47.1392486 50.1449681,47.3696369 49.3016857,46.1740783 L46.4851671,42.1791901 C45.6418847,40.982513 45.9263252,39.3306514 47.1176289,38.4862671 C48.3100481,37.6418829 49.957572,37.9248355 50.8008544,39.1203941 L53.617373,43.1152823 C54.45954,44.3108409 53.8148082,45.4504801 52.6235045,46.2948643" mask="url(#inngang_veientilarbeid-d)"/>
    <path fill="#D94C56" d="M51,48.6975543 L62.7825429,65.4793415 C63.1722359,66.0346861 63.9330651,66.1665156 64.4835838,65.7741413 C65.0351334,65.381767 65.165031,64.6157028 64.775338,64.0603582 L53.5000146,48 C52.5649576,48.6394248 51.6845401,48.8096613 51,48.6975543" mask="url(#inngang_veientilarbeid-d)"/>
    <path fill="#E7E6E2" d="M78.4988626 55C79.8819381 55 81 55.9208289 81 57.0573764L81 78.9426236C81 80.0791711 79.8819381 81 78.4988626 81 77.1191993 81 76 80.0791711 76 78.9426236L76 57.0573764C76 55.9208289 77.1191993 55 78.4988626 55M73.5005686 52C74.8810553 52 76 53.0509145 76 54.3522506L76 82.6477494C76 83.9480153 74.8810553 85 73.5005686 85 72.1189447 85 71 83.9480153 71 82.6477494L71 54.3522506C71 53.0509145 72.1189447 52 73.5005686 52M68.4994314 48C69.8799181 48 71 49.0382974 71 50.3156349L71 83.6864712C71 84.9648617 69.8799181 86 68.4994314 86 67.1189447 86 66 84.9648617 66 83.6864712L66 50.3156349C66 49.0382974 67.1189447 48 68.4994314 48M62.5 44C63.8813097 44 65 45.0422833 65 46.3245243L65 68.6754757C65 69.9598309 63.8813097 71 62.5 71 61.1186903 71 60 69.9598309 60 68.6754757L60 46.3245243C60 45.0422833 61.1186903 44 62.5 44" mask="url(#inngang_veientilarbeid-d)"/>
    <path fill="#E7E6E2" d="M77.6162184,85 L77.6162184,82.0821252 C77.6162184,81.28401 79,80.6183798 79,80.6183798 L76.1208414,57.1834965 L62.5338488,57.1834965 L60.1956617,64.879378 C60.1956617,64.879378 59.6238687,65.0556685 59.0520757,64.1720791 C58.4802826,63.2852845 56.7638408,59.1291025 56.7638408,59.1291025 C56.7638408,59.1291025 54.4777315,54.2228846 52.3637978,55.1064739 C50.2541153,55.9900632 51.2212745,59.217782 51.2212745,59.217782 C51.2212745,59.217782 52.2979034,64.3077694 52.8941411,66.7352361 C53.6466122,69.8048276 55.4013154,72.926772 56.853117,75.2292328 C58.3038558,77.5263514 61.0756703,80.8833498 62.0438923,80.8833498 L62.2649573,85 L77.6162184,85 Z" mask="url(#inngang_veientilarbeid-d)"/>
    <polygon fill="#0067C5" points="60 102 81 102 81 85 60 85" mask="url(#inngang_veientilarbeid-d)"/>
    <polygon fill="#FFF" points="60 91 81 91 81 85 60 85" mask="url(#inngang_veientilarbeid-d)"/>
    <path fill="#2F3237" d="M79,88.5 C79,87.6714976 78.3270238,87 77.4981877,87 C76.6705598,87 76,87.6714976 76,88.5 C76,89.3272947 76.6705598,90 77.4981877,90 C78.3270238,90 79,89.3272947 79,88.5" mask="url(#inngang_veientilarbeid-d)"/>
  </g>
</svg>

<svg xmlns="http://www.w3.org/2000/svg" xmlns:xlink="http://www.w3.org/1999/xlink" width="100" height="100"><defs><circle id="a" cx="50" cy="50" r="50"/><circle id="c" cx="50" cy="50" r="50"/></defs><g fill="none" fill-rule="evenodd"><mask id="b" fill="#fff"><use xlink:href="#a"/></mask><g fill="#99BDCD" mask="url(#b)"><path d="M0 100h100V0H0z"/></g><mask id="d" fill="#fff"><use xlink:href="#c"/></mask><path fill="#CCDEE6" d="M50.972 17.187c5.26 7.666 3.493 18.275-3.947 23.694-7.442 5.419-17.737 3.597-22.997-4.068-5.26-7.666-3.492-18.275 3.949-23.694 7.44-5.419 17.736-3.597 22.995 4.068z" mask="url(#d)"/><path fill="#C52C35" d="M67.437 67.3c-1.67 1.216-3.976.806-5.155-.912L49.679 48.012c-1.18-1.718-.784-4.097.885-5.313 1.668-1.215 3.974-.805 5.154.913L68.32 61.988c1.179 1.718.784 4.097-.884 5.313" mask="url(#d)"/><path fill="#2F3238" d="M29.056 13.347c-6.977 4.933-8.64 14.622-3.71 21.598 4.932 6.976 14.621 8.64 21.598 3.708 6.977-4.932 8.64-14.622 3.71-21.598-4.932-6.976-14.621-8.64-21.598-3.708m19.337 27.356c-8.107 5.73-19.365 3.8-25.097-4.309-5.73-8.107-3.797-19.365 4.31-25.097 8.108-5.731 19.366-3.799 25.098 4.308 5.73 8.108 3.797 19.367-4.31 25.098" mask="url(#d)"/><path fill="#2F3238" d="M52.624 46.295c-1.192.844-2.479 1.075-3.322-.12l-2.817-3.996a2.653 2.653 0 0 1 .633-3.693 2.638 2.638 0 0 1 3.683.634l2.816 3.995c.843 1.196.198 2.335-.993 3.18" mask="url(#d)"/><path fill="#D94C56" d="M51 48.698l11.783 16.781c.39.556 1.15.688 1.7.295a1.234 1.234 0 0 0 .292-1.714L53.5 48c-.935.64-1.815.81-2.5.698" mask="url(#d)"/><path fill="#E7E6E2" d="M78.499 55c1.383 0 2.501.92 2.501 2.057v21.886C81 80.079 79.882 81 78.499 81 77.119 81 76 80.08 76 78.943V57.057C76 55.921 77.12 55 78.499 55M73.5 52C74.88 52 76 53.05 76 54.352v28.296c0 1.3-1.119 2.352-2.5 2.352S71 83.948 71 82.648V54.352C71 53.051 72.119 52 73.5 52m-5-4c1.38 0 2.5 1.038 2.5 2.316v33.37C71 84.965 69.88 86 68.5 86c-1.381 0-2.5-1.035-2.5-2.314v-33.37C66 49.038 67.119 48 68.5 48m-6-4c1.381 0 2.5 1.042 2.5 2.325v22.35C65 69.96 63.881 71 62.5 71S60 69.96 60 68.675v-22.35C60 45.042 61.119 44 62.5 44" mask="url(#d)"/><path fill="#E7E6E2" d="M77.616 85v-2.918c0-.798 1.384-1.464 1.384-1.464l-2.88-23.435H62.535l-2.338 7.696s-.572.177-1.144-.707c-.572-.887-2.288-5.043-2.288-5.043s-2.286-4.906-4.4-4.023c-2.11.884-1.143 4.112-1.143 4.112s1.077 5.09 1.673 7.517c.753 3.07 2.507 6.192 3.96 8.494 1.45 2.297 4.222 5.654 5.19 5.654L62.265 85h15.351z" mask="url(#d)"/><path fill="#0067C5" mask="url(#d)" d="M60 102h21V85H60z"/><path fill="#FFF" mask="url(#d)" d="M60 91h21v-6H60z"/><path fill="#2F3237" d="M79 88.5a1.501 1.501 0 0 0-3 0 1.5 1.5 0 1 0 3 0" mask="url(#d)"/></g></svg>
